images/3235177.svg

<?xml version="1.0" encoding="UTF-8"?>
<svg xmlns="http://www.w3.org/2000/svg" xmlns:xlink="http://www.w3.org/1999/xlink" width="300pt" height="300pt" viewBox="0 0 300 300" version="1.1">
<defs>
<g>
<symbol overflow="visible" id="glyph0-0">
<path style="stroke:none;" d="M 0.453125 1.59375 L 0.453125 -6.34375 L 4.953125 -6.34375 L 4.953125 1.59375 Z M 0.953125 1.09375 L 4.453125 1.09375 L 4.453125 -5.84375 L 0.953125 -5.84375 Z M 0.953125 1.09375 "/>
</symbol>
<symbol overflow="visible" id="glyph0-1">
<path style="stroke:none;" d="M 3.546875 -5.953125 C 2.898438 -5.953125 2.382812 -5.710938 2 -5.234375 C 1.625 -4.753906 1.4375 -4.101562 1.4375 -3.28125 C 1.4375 -2.445312 1.625 -1.789062 2 -1.3125 C 2.382812 -0.832031 2.898438 -0.59375 3.546875 -0.59375 C 4.191406 -0.59375 4.703125 -0.832031 5.078125 -1.3125 C 5.453125 -1.789062 5.640625 -2.445312 5.640625 -3.28125 C 5.640625 -4.101562 5.453125 -4.753906 5.078125 -5.234375 C 4.703125 -5.710938 4.191406 -5.953125 3.546875 -5.953125 Z M 3.546875 -6.6875 C 4.460938 -6.6875 5.195312 -6.375 5.75 -5.75 C 6.300781 -5.132812 6.578125 -4.3125 6.578125 -3.28125 C 6.578125 -2.238281 6.300781 -1.410156 5.75 -0.796875 C 5.195312 -0.179688 4.460938 0.125 3.546875 0.125 C 2.617188 0.125 1.878906 -0.179688 1.328125 -0.796875 C 0.773438 -1.410156 0.5 -2.238281 0.5 -3.28125 C 0.5 -4.3125 0.773438 -5.132812 1.328125 -5.75 C 1.878906 -6.375 2.617188 -6.6875 3.546875 -6.6875 Z M 3.546875 -6.6875 "/>
</symbol>
<symbol overflow="visible" id="glyph0-2">
<path style="stroke:none;" d="M 0.890625 -6.5625 L 2.078125 -6.5625 L 4.984375 -1.078125 L 4.984375 -6.5625 L 5.84375 -6.5625 L 5.84375 0 L 4.65625 0 L 1.75 -5.484375 L 1.75 0 L 0.890625 0 Z M 0.890625 -6.5625 "/>
</symbol>
</g>
</defs>
<g id="surface39129">
<rect x="0" y="0" width="300" height="300" style="fill:rgb(100%,100%,100%);fill-opacity:1;stroke:none;"/>
<path style="fill:none;stroke-width:1.2;stroke-linecap:butt;stroke-linejoin:miter;stroke:rgb(0%,0%,0%);stroke-opacity:1;stroke-miterlimit:10;" d="M 35.25 113.609375 L 43.058594 122.28125 "/>
<path style="fill:none;stroke-width:1.2;stroke-linecap:butt;stroke-linejoin:miter;stroke:rgb(100%,0%,0%);stroke-opacity:1;stroke-miterlimit:10;" d="M 43.058594 122.28125 L 50.871094 130.953125 "/>
<path style="fill:none;stroke-width:1.2;stroke-linecap:butt;stroke-linejoin:miter;stroke:rgb(100%,0%,0%);stroke-opacity:1;stroke-miterlimit:10;" d="M 50.871094 130.953125 L 62.285156 128.527344 "/>
<path style="fill:none;stroke-width:1.2;stroke-linecap:butt;stroke-linejoin:miter;stroke:rgb(0%,0%,0%);stroke-opacity:1;stroke-miterlimit:10;" d="M 62.285156 128.527344 L 73.699219 126.097656 "/>
<path style=" stroke:none;fill-rule:nonzero;fill:rgb(100%,100%,100%);fill-opacity:1;" d="M 46.871094 125.453125 L 54.871094 125.453125 L 54.871094 136.453125 L 46.871094 136.453125 Z M 46.871094 125.453125 "/>
<g style="fill:rgb(100%,0%,0%);fill-opacity:1;">
  <use xlink:href="#glyph0-1" x="46.871094" y="134.116211"/>
</g>
<path style="fill:none;stroke-width:1.2;stroke-linecap:butt;stroke-linejoin:miter;stroke:rgb(0%,0%,0%);stroke-opacity:1;stroke-miterlimit:10;" d="M 73.699219 126.097656 L 77.304688 115 "/>
<path style="fill:none;stroke-width:1.2;stroke-linecap:butt;stroke-linejoin:miter;stroke:rgb(0%,0%,100%);stroke-opacity:1;stroke-miterlimit:10;" d="M 77.304688 115 L 80.910156 103.898438 "/>
<path style="fill:none;stroke-width:1.2;stroke-linecap:butt;stroke-linejoin:miter;stroke:rgb(0%,0%,0%);stroke-opacity:1;stroke-miterlimit:10;" d="M 79.644531 125.574219 L 82.527344 116.695312 "/>
<path style="fill:none;stroke-width:1.2;stroke-linecap:butt;stroke-linejoin:miter;stroke:rgb(0%,0%,100%);stroke-opacity:1;stroke-miterlimit:10;" d="M 82.527344 116.695312 L 85.410156 107.816406 "/>
<path style="fill:none;stroke-width:1.2;stroke-linecap:butt;stroke-linejoin:miter;stroke:rgb(0%,0%,100%);stroke-opacity:1;stroke-miterlimit:10;" d="M 89.320312 143.441406 L 81.511719 134.769531 "/>
<path style="fill:none;stroke-width:1.2;stroke-linecap:butt;stroke-linejoin:miter;stroke:rgb(0%,0%,0%);stroke-opacity:1;stroke-miterlimit:10;" d="M 81.511719 134.769531 L 73.699219 126.097656 "/>
<path style="fill:none;stroke-width:1.2;stroke-linecap:butt;stroke-linejoin:miter;stroke:rgb(0%,0%,100%);stroke-opacity:1;stroke-miterlimit:10;" d="M 80.910156 103.898438 L 92.324219 101.472656 "/>
<path style="fill:none;stroke-width:1.2;stroke-linecap:butt;stroke-linejoin:miter;stroke:rgb(0%,0%,0%);stroke-opacity:1;stroke-miterlimit:10;" d="M 92.324219 101.472656 L 103.738281 99.042969 "/>
<path style=" stroke:none;fill-rule:nonzero;fill:rgb(100%,100%,100%);fill-opacity:1;" d="M 77.910156 98.398438 L 84.910156 98.398438 L 84.910156 109.398438 L 77.910156 109.398438 Z M 77.910156 98.398438 "/>
<g style="fill:rgb(0%,0%,100%);fill-opacity:1;">
  <use xlink:href="#glyph0-2" x="77.910156" y="107.061523"/>
</g>
<path style="fill:none;stroke-width:1.2;stroke-linecap:butt;stroke-linejoin:miter;stroke:rgb(0%,0%,0%);stroke-opacity:1;stroke-miterlimit:10;" d="M 103.738281 99.042969 L 119.359375 116.386719 "/>
<path style="fill:none;stroke-width:1.2;stroke-linecap:butt;stroke-linejoin:miter;stroke:rgb(0%,0%,0%);stroke-opacity:1;stroke-miterlimit:10;" d="M 101.222656 104.453125 L 113.71875 118.328125 "/>
<path style="fill:none;stroke-width:1.2;stroke-linecap:butt;stroke-linejoin:miter;stroke:rgb(0%,0%,0%);stroke-opacity:1;stroke-miterlimit:10;" d="M 119.359375 116.386719 L 112.152344 138.585938 "/>
<path style="fill:none;stroke-width:1.2;stroke-linecap:butt;stroke-linejoin:miter;stroke:rgb(0%,0%,100%);stroke-opacity:1;stroke-miterlimit:10;" d="M 142.191406 111.53125 L 130.773438 113.957031 "/>
<path style="fill:none;stroke-width:1.2;stroke-linecap:butt;stroke-linejoin:miter;stroke:rgb(0%,0%,0%);stroke-opacity:1;stroke-miterlimit:10;" d="M 130.773438 113.957031 L 119.359375 116.386719 "/>
<path style="fill:none;stroke-width:1.2;stroke-linecap:butt;stroke-linejoin:miter;stroke:rgb(0%,0%,0%);stroke-opacity:1;stroke-miterlimit:10;" d="M 112.152344 138.585938 L 100.734375 141.011719 "/>
<path style="fill:none;stroke-width:1.2;stroke-linecap:butt;stroke-linejoin:miter;stroke:rgb(0%,0%,100%);stroke-opacity:1;stroke-miterlimit:10;" d="M 100.734375 141.011719 L 89.320312 143.441406 "/>
<path style="fill:none;stroke-width:1.2;stroke-linecap:butt;stroke-linejoin:miter;stroke:rgb(0%,0%,0%);stroke-opacity:1;stroke-miterlimit:10;" d="M 108.726562 133.699219 L 99.59375 135.640625 "/>
<path style="fill:none;stroke-width:1.2;stroke-linecap:butt;stroke-linejoin:miter;stroke:rgb(0%,0%,100%);stroke-opacity:1;stroke-miterlimit:10;" d="M 99.59375 135.640625 L 90.460938 137.582031 "/>
<path style="fill:none;stroke-width:1.2;stroke-linecap:butt;stroke-linejoin:miter;stroke:rgb(0%,0%,0%);stroke-opacity:1;stroke-miterlimit:10;" d="M 112.152344 138.585938 L 119.960938 147.257812 "/>
<path style="fill:none;stroke-width:1.2;stroke-linecap:butt;stroke-linejoin:miter;stroke:rgb(0%,0%,100%);stroke-opacity:1;stroke-miterlimit:10;" d="M 119.960938 147.257812 L 127.769531 155.929688 "/>
<path style=" stroke:none;fill-rule:nonzero;fill:rgb(100%,100%,100%);fill-opacity:1;" d="M 86.320312 137.941406 L 93.320312 137.941406 L 93.320312 148.941406 L 86.320312 148.941406 Z M 86.320312 137.941406 "/>
<g style="fill:rgb(0%,0%,100%);fill-opacity:1;">
  <use xlink:href="#glyph0-2" x="86.320312" y="146.604492"/>
</g>
<path style="fill:none;stroke-width:1.2;stroke-linecap:butt;stroke-linejoin:miter;stroke:rgb(0%,0%,100%);stroke-opacity:1;stroke-miterlimit:10;" d="M 127.769531 155.929688 L 139.1875 153.5 "/>
<path style="fill:none;stroke-width:1.2;stroke-linecap:butt;stroke-linejoin:miter;stroke:rgb(0%,0%,0%);stroke-opacity:1;stroke-miterlimit:10;" d="M 139.1875 153.5 L 150.601562 151.070312 "/>
<path style="fill:none;stroke-width:1.2;stroke-linecap:butt;stroke-linejoin:miter;stroke:rgb(0%,0%,100%);stroke-opacity:1;stroke-miterlimit:10;" d="M 127.769531 155.929688 L 124.167969 167.027344 "/>
<path style="fill:none;stroke-width:1.2;stroke-linecap:butt;stroke-linejoin:miter;stroke:rgb(0%,0%,0%);stroke-opacity:1;stroke-miterlimit:10;" d="M 124.167969 167.027344 L 120.5625 178.128906 "/>
<path style=" stroke:none;fill-rule:nonzero;fill:rgb(100%,100%,100%);fill-opacity:1;" d="M 124.769531 150.429688 L 131.769531 150.429688 L 131.769531 161.429688 L 124.769531 161.429688 Z M 124.769531 150.429688 "/>
<g style="fill:rgb(0%,0%,100%);fill-opacity:1;">
  <use xlink:href="#glyph0-2" x="124.769531" y="159.092773"/>
</g>
<path style="fill:none;stroke-width:1.2;stroke-linecap:butt;stroke-linejoin:miter;stroke:rgb(0%,0%,0%);stroke-opacity:1;stroke-miterlimit:10;" d="M 148.558594 152.910156 L 156.371094 161.582031 "/>
<path style="fill:none;stroke-width:1.2;stroke-linecap:butt;stroke-linejoin:miter;stroke:rgb(100%,0%,0%);stroke-opacity:1;stroke-miterlimit:10;" d="M 156.371094 161.582031 L 164.179688 170.253906 "/>
<path style="fill:none;stroke-width:1.2;stroke-linecap:butt;stroke-linejoin:miter;stroke:rgb(0%,0%,0%);stroke-opacity:1;stroke-miterlimit:10;" d="M 152.640625 149.234375 L 160.453125 157.90625 "/>
<path style="fill:none;stroke-width:1.2;stroke-linecap:butt;stroke-linejoin:miter;stroke:rgb(100%,0%,0%);stroke-opacity:1;stroke-miterlimit:10;" d="M 160.453125 157.90625 L 168.261719 166.578125 "/>
<path style="fill:none;stroke-width:1.2;stroke-linecap:butt;stroke-linejoin:miter;stroke:rgb(0%,0%,0%);stroke-opacity:1;stroke-miterlimit:10;" d="M 150.601562 151.070312 L 157.808594 128.871094 "/>
<path style=" stroke:none;fill-rule:nonzero;fill:rgb(100%,100%,100%);fill-opacity:1;" d="M 162.222656 162.914062 L 170.222656 162.914062 L 170.222656 173.914062 L 162.222656 173.914062 Z M 162.222656 162.914062 "/>
<g style="fill:rgb(100%,0%,0%);fill-opacity:1;">
  <use xlink:href="#glyph0-1" x="162.222656" y="171.577148"/>
</g>
<path style="fill:none;stroke-width:1.2;stroke-linecap:butt;stroke-linejoin:miter;stroke:rgb(0%,0%,0%);stroke-opacity:1;stroke-miterlimit:10;" d="M 157.808594 128.871094 L 150 120.203125 "/>
<path style="fill:none;stroke-width:1.2;stroke-linecap:butt;stroke-linejoin:miter;stroke:rgb(0%,0%,100%);stroke-opacity:1;stroke-miterlimit:10;" d="M 150 120.203125 L 142.191406 111.53125 "/>
<path style="fill:none;stroke-width:1.2;stroke-linecap:butt;stroke-linejoin:miter;stroke:rgb(0%,0%,0%);stroke-opacity:1;stroke-miterlimit:10;" d="M 152.167969 130.8125 L 145.917969 123.875 "/>
<path style="fill:none;stroke-width:1.2;stroke-linecap:butt;stroke-linejoin:miter;stroke:rgb(0%,0%,100%);stroke-opacity:1;stroke-miterlimit:10;" d="M 145.917969 123.875 L 139.671875 116.9375 "/>
<path style="fill:none;stroke-width:1.2;stroke-linecap:butt;stroke-linejoin:miter;stroke:rgb(0%,0%,0%);stroke-opacity:1;stroke-miterlimit:10;" d="M 157.808594 128.871094 L 180.640625 124.015625 "/>
<path style=" stroke:none;fill-rule:nonzero;fill:rgb(100%,100%,100%);fill-opacity:1;" d="M 139.191406 106.03125 L 146.191406 106.03125 L 146.191406 117.03125 L 139.191406 117.03125 Z M 139.191406 106.03125 "/>
<g style="fill:rgb(0%,0%,100%);fill-opacity:1;">
  <use xlink:href="#glyph0-2" x="139.191406" y="114.694336"/>
</g>
<path style="fill:none;stroke-width:1.2;stroke-linecap:butt;stroke-linejoin:miter;stroke:rgb(0%,0%,0%);stroke-opacity:1;stroke-miterlimit:10;" d="M 180.640625 124.015625 L 196.261719 141.359375 "/>
<path style="fill:none;stroke-width:1.2;stroke-linecap:butt;stroke-linejoin:miter;stroke:rgb(0%,0%,0%);stroke-opacity:1;stroke-miterlimit:10;" d="M 196.261719 141.359375 L 219.089844 136.503906 "/>
<path style="fill:none;stroke-width:1.2;stroke-linecap:butt;stroke-linejoin:miter;stroke:rgb(0%,0%,0%);stroke-opacity:1;stroke-miterlimit:10;" d="M 219.089844 136.503906 L 234.710938 153.847656 "/>
<path style="fill:none;stroke-width:1.2;stroke-linecap:butt;stroke-linejoin:miter;stroke:rgb(0%,0%,0%);stroke-opacity:1;stroke-miterlimit:10;" d="M 224.734375 134.5625 L 237.230469 148.4375 "/>
<path style="fill:none;stroke-width:1.2;stroke-linecap:butt;stroke-linejoin:miter;stroke:rgb(0%,0%,0%);stroke-opacity:1;stroke-miterlimit:10;" d="M 226.300781 114.304688 L 219.089844 136.503906 "/>
<path style="fill:none;stroke-width:1.2;stroke-linecap:butt;stroke-linejoin:miter;stroke:rgb(0%,0%,0%);stroke-opacity:1;stroke-miterlimit:10;" d="M 234.710938 153.847656 L 257.539062 148.992188 "/>
<path style="fill:none;stroke-width:1.2;stroke-linecap:butt;stroke-linejoin:miter;stroke:rgb(0%,0%,0%);stroke-opacity:1;stroke-miterlimit:10;" d="M 257.539062 148.992188 L 264.75 126.792969 "/>
<path style="fill:none;stroke-width:1.2;stroke-linecap:butt;stroke-linejoin:miter;stroke:rgb(0%,0%,0%);stroke-opacity:1;stroke-miterlimit:10;" d="M 253.039062 145.074219 L 258.804688 127.316406 "/>
<path style="fill:none;stroke-width:1.2;stroke-linecap:butt;stroke-linejoin:miter;stroke:rgb(0%,0%,0%);stroke-opacity:1;stroke-miterlimit:10;" d="M 264.75 126.792969 L 249.128906 109.449219 "/>
<path style="fill:none;stroke-width:1.2;stroke-linecap:butt;stroke-linejoin:miter;stroke:rgb(0%,0%,0%);stroke-opacity:1;stroke-miterlimit:10;" d="M 249.128906 109.449219 L 226.300781 114.304688 "/>
<path style="fill:none;stroke-width:1.2;stroke-linecap:butt;stroke-linejoin:miter;stroke:rgb(0%,0%,0%);stroke-opacity:1;stroke-miterlimit:10;" d="M 247.988281 115.304688 L 229.726562 119.191406 "/>
<path style="fill:none;stroke-width:1.2;stroke-linecap:butt;stroke-linejoin:miter;stroke:rgb(0%,0%,0%);stroke-opacity:1;stroke-miterlimit:10;" d="M 120.5625 178.128906 L 125.417969 200.957031 "/>
<path style="fill:none;stroke-width:1.2;stroke-linecap:butt;stroke-linejoin:miter;stroke:rgb(0%,0%,0%);stroke-opacity:1;stroke-miterlimit:10;" d="M 103.21875 193.746094 L 120.5625 178.128906 "/>
<path style="fill:none;stroke-width:1.2;stroke-linecap:butt;stroke-linejoin:miter;stroke:rgb(0%,0%,0%);stroke-opacity:1;stroke-miterlimit:10;" d="M 125.417969 200.957031 L 103.21875 193.746094 "/>
</g>
</svg>

<svg xmlns="http://www.w3.org/2000/svg" xmlns:xlink="http://www.w3.org/1999/xlink" width="300pt" height="300pt" viewBox="0 0 300 300"><defs><symbol overflow="visible"><path d="M.453 1.594v-7.938h4.5v7.938zm.5-.5h3.5v-6.938h-3.5zm0 0"/></symbol><symbol overflow="visible" id="a"><path d="M3.547-5.953c-.65 0-1.164.242-1.547.72-.375.48-.563 1.13-.563 1.952 0 .835.188 1.49.563 1.967.383.48.898.72 1.547.72.644 0 1.156-.24 1.53-.72.376-.476.564-1.132.564-1.968 0-.822-.187-1.474-.562-1.954-.375-.477-.887-.72-1.53-.72zm0-.734c.914 0 1.648.312 2.203.937.55.617.828 1.438.828 2.47 0 1.042-.277 1.87-.828 2.483-.555.617-1.29.922-2.203.922-.93 0-1.668-.305-2.22-.922C.774-1.41.5-2.237.5-3.28c0-1.033.273-1.853.828-2.47.55-.625 1.29-.938 2.22-.938zm0 0"/></symbol><symbol overflow="visible" id="b"><path d="M.89-6.563H2.08l2.906 5.485v-5.484h.86V0H4.656L1.75-5.484V0H.89zm0 0"/></symbol></defs><g><path fill="#fff" d="M0 0h300v300H0z"/><path d="M35.25 113.61l7.81 8.67" stroke-width="1.2" stroke="#000" stroke-miterlimit="10" fill="none"/><path d="M43.06 122.28l7.81 8.673M50.87 130.953l11.415-2.426" stroke-width="1.2" stroke="#f00" stroke-miterlimit="10" fill="none"/><path d="M62.285 128.527l11.414-2.43" stroke-width="1.2" stroke="#000" stroke-miterlimit="10" fill="none"/><path d="M46.87 125.453h8v11h-8zm0 0" fill="#fff"/><use xlink:href="#a" x="46.871" y="134.116" fill="#f00"/><path d="M73.7 126.098L77.304 115" stroke-width="1.2" stroke="#000" stroke-miterlimit="10" fill="none"/><path d="M77.305 115l3.605-11.102" stroke-width="1.2" stroke="#00f" stroke-miterlimit="10" fill="none"/><path d="M79.645 125.574l2.882-8.88" stroke-width="1.2" stroke="#000" stroke-miterlimit="10" fill="none"/><path d="M82.527 116.695l2.883-8.88M89.32 143.44l-7.808-8.67" stroke-width="1.2" stroke="#00f" stroke-miterlimit="10" fill="none"/><path d="M81.512 134.77l-7.813-8.672" stroke-width="1.2" stroke="#000" stroke-miterlimit="10" fill="none"/><path d="M80.91 103.898l11.414-2.425" stroke-width="1.2" stroke="#00f" stroke-miterlimit="10" fill="none"/><path d="M92.324 101.473l11.414-2.43" stroke-width="1.2" stroke="#000" stroke-miterlimit="10" fill="none"/><path d="M77.91 98.398h7v11h-7zm0 0" fill="#fff"/><use xlink:href="#b" x="77.91" y="107.062" fill="#00f"/><path d="M103.738 99.043l15.62 17.344M101.223 104.453l12.496 13.875M119.36 116.387l-7.208 22.2" stroke-width="1.2" stroke="#000" stroke-miterlimit="10" fill="none"/><path d="M142.19 111.53l-11.417 2.427" stroke-width="1.2" stroke="#00f" stroke-miterlimit="10" fill="none"/><path d="M130.773 113.957l-11.414 2.43M112.152 138.586l-11.418 2.426" stroke-width="1.2" stroke="#000" stroke-miterlimit="10" fill="none"/><path d="M100.734 141.012l-11.414 2.43" stroke-width="1.2" stroke="#00f" stroke-miterlimit="10" fill="none"/><path d="M108.727 133.7l-9.133 1.94" stroke-width="1.2" stroke="#000" stroke-miterlimit="10" fill="none"/><path d="M99.594 135.64l-9.133 1.942" stroke-width="1.2" stroke="#00f" stroke-miterlimit="10" fill="none"/><path d="M112.152 138.586l7.81 8.672" stroke-width="1.2" stroke="#000" stroke-miterlimit="10" fill="none"/><path d="M119.96 147.258l7.81 8.672" stroke-width="1.2" stroke="#00f" stroke-miterlimit="10" fill="none"/><path d="M86.32 137.94h7v11h-7zm0 0" fill="#fff"/><use xlink:href="#b" x="86.32" y="146.604" fill="#00f"/><path d="M127.77 155.93l11.418-2.43" stroke-width="1.2" stroke="#00f" stroke-miterlimit="10" fill="none"/><path d="M139.188 153.5l11.414-2.43" stroke-width="1.2" stroke="#000" stroke-miterlimit="10" fill="none"/><path d="M127.77 155.93l-3.602 11.097" stroke-width="1.2" stroke="#00f" stroke-miterlimit="10" fill="none"/><path d="M124.168 167.027l-3.606 11.102" stroke-width="1.2" stroke="#000" stroke-miterlimit="10" fill="none"/><path d="M124.77 150.43h7v11h-7zm0 0" fill="#fff"/><use xlink:href="#b" x="124.77" y="159.093" fill="#00f"/><path d="M148.56 152.91l7.81 8.672" stroke-width="1.2" stroke="#000" stroke-miterlimit="10" fill="none"/><path d="M156.37 161.582l7.81 8.672" stroke-width="1.2" stroke="#f00" stroke-miterlimit="10" fill="none"/><path d="M152.64 149.234l7.813 8.672" stroke-width="1.2" stroke="#000" stroke-miterlimit="10" fill="none"/><path d="M160.453 157.906l7.81 8.672" stroke-width="1.2" stroke="#f00" stroke-miterlimit="10" fill="none"/><path d="M150.602 151.07l7.207-22.2" stroke-width="1.2" stroke="#000" stroke-miterlimit="10" fill="none"/><path d="M162.223 162.914h8v11h-8zm0 0" fill="#fff"/><use xlink:href="#a" x="162.223" y="171.577" fill="#f00"/><path d="M157.81 128.87l-7.81-8.667" stroke-width="1.2" stroke="#000" stroke-miterlimit="10" fill="none"/><path d="M150 120.203l-7.81-8.672" stroke-width="1.2" stroke="#00f" stroke-miterlimit="10" fill="none"/><path d="M152.168 130.813l-6.25-6.938" stroke-width="1.2" stroke="#000" stroke-miterlimit="10" fill="none"/><path d="M145.918 123.875l-6.246-6.938" stroke-width="1.2" stroke="#00f" stroke-miterlimit="10" fill="none"/><path d="M157.81 128.87l22.83-4.854" stroke-width="1.2" stroke="#000" stroke-miterlimit="10" fill="none"/><path d="M139.19 106.03h7v11h-7zm0 0" fill="#fff"/><use xlink:href="#b" x="139.191" y="114.694" fill="#00f"/><path d="M180.64 124.016l15.622 17.343M196.262 141.36l22.828-4.856M219.09 136.504l15.62 17.344M224.734 134.563l12.496 13.875M226.3 114.305l-7.21 22.2M234.71 153.848l22.83-4.856M257.54 148.992l7.21-22.2M253.04 145.074l5.765-17.758M264.75 126.793l-15.62-17.344M249.13 109.45l-22.83 4.855M247.988 115.305l-18.26 3.886M120.563 178.13l4.855 22.827M103.22 193.746l17.343-15.617M125.418 200.957l-22.2-7.21" stroke-width="1.2" stroke="#000" stroke-miterlimit="10" fill="none"/></g></svg>
